X:5274
T:Fisher's
M:C|
L:1/8
K:D Major
(3ABc|dAFD GBAG|FDFD GBAG|FD (3DED GE (3EGE|FEDF E2 (3ABc|!
dAFD GBAG|FDFD GBAG|FAdf ecAc|d2dc d2:|!
cd|ecAc efge|fddc dfaf|ecAc efgf|(3efe (3dcB A2dc|!
BGDG BdcB|AFDF ABcA|(3Bcd ef gece|d2dc d2:|!
